!!!SOCIAL_FUNCTION:	songs of war
!!!PDT:	1918

Specific Region: Dakotas, Minnesota, Montana, Nebraska
!!!REG: Dakotas and Montana
!!!LING_GROUP: Siouan
!!!LANG: Tone
!!!OTL@ENG: Adventures I Seek
!!!ONM: No. 130
**kern
*Imale
*clefF4
*k[b-e-]
*M2/4
*MM96
8f
8d
8d
8f
=2
4f
8d
16f
16e-
=3
4d
8c
16d
16c
=4||
*M3/4
4B-
8B-
8B-
8B-
8B-
=5
2B-
8B-
8B-
=6
8d
8d
8d
8d
8c
16d
16c
=7||
*M2/4
4B-
8G
8B-
=8||
*M3/4
4F
8D
8D
8D
8D
=9
8D
8D
4D
8F
8F
=10
16B-
16B-
8c
4B-
8G
8B-
=11
4F
8D
8F
4D
=12||
*M2/4
8BB-
8BB-
4BB-
=13
4.BB-
8BB-
=14||
*M3/4
2BB-
8d
8d
=15
8f
8f
4f
8d
(16f
16e-)
=16||
*M2/4
4d
8c
16d
16c
=17
4B-
8B-
8B-
=18
8B-
8B-
[4B-
=19
4B-]
8B-
8B-
=20||
*M3/4
8d
8d
8d
8d
8c
(16d
16c)
=21||
*M2/4
8B-
8B-
8G
8B-
=22||
*M3/4
4F
8D
8D
8D
8D
=23
8D
8D
4D
8F
8F
=24
16B-
16B-
8c
4B-
8G
8B-
=25
4F
8D
8F
4D
=26||
*M2/4
8BB-
8BB-
4BB-
=27
2BB-
==
*-
!!!CNT: Native American -- Sioux
!!!MRD: 1911/07//-1914///
!!!OCL: Frances Densmore
!!!YOR1: Teton Sioux Music, Bulletin 61,
!!!YOR2: Bureau of American Ethnology, Smithsonian Institution
!!!PPR: Government Printing Office
!!!PPP: Washington, D.C.
!!!PDT: 1918///
!!!ENC: Craig Stuart Sapp
!!!END: 2002/03/25/
!!!EEV: 2002/03/31/
!!!AGN: War Song/Song of a Typical War Expedition
!!!MPN@@SIO: Waha'chungka-nong'pa
!!!MPN@ENG: Two Shields
!!!TXO: Teton Sioux
!!!MLC: Standing Rock Reservation, South Dakota, United States of America
!!!ARL: 45.9/-100.7#
!!!catalog: Catalogue No. 523
!!!PPG: 340
!!!EFL: 131/245
!!!VTS: 2887865398
